src/icons/svg/x.svg

<svg width="32" height="32" viewBox="0 0 32 32" fill="none" xmlns="http://www.w3.org/2000/svg">
<path d="M24.2089 3.20001H28.5517L19.0639 14.0439L30.2255 28.8H21.4861L14.641 19.8505L6.80875 28.8H2.46331L12.6114 17.2012L1.90405 3.20001H10.8654L17.0527 11.3802L24.2089 3.20001ZM22.6847 26.2006H25.0911L9.5578 5.66286H6.97548L22.6847 26.2006Z" fill="black"/>
</svg>

<svg width="32" height="32" fill="none" xmlns="http://www.w3.org/2000/svg"><path d="M24.209 3.2h4.343l-9.488 10.844L30.226 28.8h-8.74l-6.845-8.95-7.832 8.95H2.463l10.148-11.599L1.904 3.2h8.961l6.188 8.18 7.156-8.18Zm-1.524 23h2.406L9.558 5.664H6.975L22.685 26.2Z" fill="#000"/></svg>
